Origami/16x16/apps/sirikali.svg

<svg width="16" height="16" version="1" xmlns="http://www.w3.org/2000/svg">
 <rect transform="matrix(0,-1,-1,0,0,0)" x="-16" y="-16" width="16" height="16" rx=".8" ry=".8" style="fill:#1493ca"/>
 <path d="m8 3c-1.6117 0-3 1.2745219-3 2.8574219v1.1425781h-0.4902344c-0.2819 0-0.5097656 0.2507438-0.5097656 0.5273438v3.9726562c0 0.277 0.2278656 0.5 0.5097656 0.5h6.9804684c0.282 0 0.509766-0.223 0.509766-0.5v-3.9726562c0-0.2766001-0.228766-0.5451438-0.509766-0.5273438h-0.490234v-1.1425781c0-1.5829-1.3886-2.8574219-3-2.8574219zm0 0.8886719c1.1751 0 2 0.8182587 2 1.8867187v1.2246094h-4v-1.2246094c0-1.0686 0.8247-1.8867187 2-1.8867187zm0 4.1113281a1 1 0 0 1 1 1 1 1 0 0 1 -0.5 0.8652344v1.1347656h-1v-1.1367188a1 1 0 0 1 -0.5 -0.8632812 1 1 0 0 1 1 -1z" style="fill:#ffffff"/>
</svg>

<svg xmlns="http://www.w3.org/2000/svg" width="16" height="16" version="1">
 <rect style="fill:#1493ca" width="16" height="16" x="-16" y="-16" rx=".8" ry=".8" transform="matrix(0,-1,-1,0,0,0)"/>
 <path style="fill:#ffffff" d="M 8 3 C 6.3883 3 5 4.2745219 5 5.8574219 L 5 7 L 4.5097656 7 C 4.2278656 7 4 7.2507438 4 7.5273438 L 4 11.5 C 4 11.777 4.2278656 12 4.5097656 12 L 11.490234 12 C 11.772234 12 12 11.777 12 11.5 L 12 7.5273438 C 12 7.2507437 11.771234 6.9822 11.490234 7 L 11 7 L 11 5.8574219 C 11 4.2745219 9.6114 3 8 3 z M 8 3.8886719 C 9.1751 3.8886719 10 4.7069306 10 5.7753906 L 10 7 L 6 7 L 6 5.7753906 C 6 4.7067906 6.8247 3.8886719 8 3.8886719 z M 8 8 A 1 1 0 0 1 9 9 A 1 1 0 0 1 8.5 9.8652344 L 8.5 11 L 7.5 11 L 7.5 9.8632812 A 1 1 0 0 1 7 9 A 1 1 0 0 1 8 8 z"/>
</svg>
